X: 1
T: The Green Gowned Lass
M: 4/4
L: 1/8
D: Live in Seattle, Martin Hayes and Dennis Cahill
K: F
=B- | c2 AF GFAF | GFAc ADDc | c2 AF GAFA | cdfg agfd |
| c/c/c AF GFAF | GFAc ADDc | c2 AF GAFA | cdfg affd ||
| fgaf gfdf | g4 g3 f- | fgaf gafd | cdfg af{a}fe |
| fgaf gfdf |g4 g3 f- | fgaf gafd | cdfg agfd ||
| c2 AF GFAF | GFAc ADDc | c2 AF GAFA | cdfg agfd |
| c/c/c AF GFAF | GFAc ADDc | c2 AF GAFA | cdfg affd ||
| fgaf gfdf | g4 g3 f- | fgaf gafd | cdfg af{a}fe |
|fgaf gfdf | {a}g4 gfga|fg a/g/f gafd|cdfg agfd||
